assets/img/braze_icons/corner-down-left.svg

<svg fill="none" height="24" viewBox="0 0 24 24" width="24" xmlns="http://www.w3.org/2000/svg"><path d="m21 4c0-.55228-.4477-1-1-1s-1 .44772-1 1v1.4c0 1.69666-.0008 2.90901-.0784 3.85936-.0767.93864-.2234 1.53334-.4666 2.01064-.4793.9408-1.2442 1.7057-2.185 2.185-.4773.2432-1.072.3899-2.0106.4666-.9504.0776-2.1627.0784-3.8594.0784h-3.98579l3.2929-3.2929c.39049-.3905.39049-1.02368 0-1.41421-.39053-.39052-1.02369-.39052-1.41422 0l-5 5.00001c-.39052.3905-.39052 1.0237 0 1.4142l5 5c.39053.3905 1.02369.3905 1.41422 0 .39049-.3905.39049-1.0237 0-1.4142l-3.2929-3.2929h4.03019c1.6425 0 2.9365 0 3.9778-.0851 1.0624-.0868 1.9495-.2671 2.7557-.6779 1.3172-.6711 2.388-1.7419 3.0591-3.0591.4108-.8062.5911-1.6933.6779-2.75568.0851-1.04131.0851-2.33525.0851-3.97778z" fill="#801ed7"/></svg>

<svg width="24" height="24" viewBox="0 0 24 24" fill="none" xmlns="http://www.w3.org/2000/svg">
<path d="M21 4C21 3.44772 20.5523 3 20 3C19.4477 3 19 3.44772 19 4V5.4C19 7.09666 18.9992 8.30901 18.9216 9.25936C18.8449 10.198 18.6982 10.7927 18.455 11.27C17.9757 12.2108 17.2108 12.9757 16.27 13.455C15.7927 13.6982 15.198 13.8449 14.2594 13.9216C13.309 13.9992 12.0967 14 10.4 14H6.41421L9.70711 10.7071C10.0976 10.3166 10.0976 9.68342 9.70711 9.29289C9.31658 8.90237 8.68342 8.90237 8.29289 9.29289L3.29289 14.2929C2.90237 14.6834 2.90237 15.3166 3.29289 15.7071L8.29289 20.7071C8.68342 21.0976 9.31658 21.0976 9.70711 20.7071C10.0976 20.3166 10.0976 19.6834 9.70711 19.2929L6.41421 16H10.4444C12.0869 16 13.3809 16 14.4222 15.9149C15.4846 15.8281 16.3717 15.6478 17.1779 15.237C18.4951 14.5659 19.5659 13.4951 20.237 12.1779C20.6478 11.3717 20.8281 10.4846 20.9149 9.42222C21 8.38091 21 7.08697 21 5.44444V4Z" fill="#801ED7"/>
</svg>
